!!!COM: Henri Reber
!!!CNT: Francais
!!!TXO: Francais
!!!OTL: Stances
!!!LYR: Charles Malherbe
!!!ENC: Jacob Pegg
!!!ODT: 1837/
!!!YOR: Romantic French Song 1830-1870, David Tunley, ed., New York: Garland Publishing, Inc., 1995, vol. 3
!!NB: Vocal melody and text only encoded.
!!NB: First instance of melodic material only encoded.
**kern	**silbe
*clef G2	*
*k[f#c#g#]	*
*M4/4	*
=5	=5
4r	.
{4.b	{N'es-
8b	-per-
4b	-ons
=6	=6
2.a	plus,
4g#	mon
=7	=7
(4g#	a^-
4f#)	-me,
4.b	aux
8b	pro-
=8	=8
(4.b	-mes-
8a)	|
4a	-ses
4g#	du
=9	=9
2a	mon-
4a}	-de;}
4r	.
=10	=10
4r	.
{8.g#	{Sa
16g#	lu-
4g#	-mie\re
8a#	est
8a#	un
=11	=11
(4a#	ver-
4b)}	-re,}
4r	.
{[4b	{et
=12	=12
4b]	|
8b	sa
8b	fa-
4.b	-veur
8cc#	une
=13	=13
2cc#	on-
4cc#	-de
8.cc#	que
16cc#	tou-
=14	=14
2.cc#	-jours
8.cc#	quel-
16cc#	-que
=15	=15
2.cc#	vent
4g#	em-
=16	=16
2b	-pe^-
4b	-che
8b	de
8cc#	cal-
=17	=17
1b}	-mer.}
=18	=18
{4a	{Quit-
2a	-tons
16aq	|
16cc#q	|
4b	ces
=19	=19
8.a	va-
16g#	-ni-
2g#}	-te/s,}
4r	.
=20	=20
{8cc#	{lais-
8dd	-sons
2cc#	nous
8b	de
8a	les
=21	=21
2b	sui-
8b}	-vre;}
8r	.
{4b	{C'est
=22	=22
[2dd	Dieu
8dd]	|
8dd	qui
8a	nous
8a	fait
=23	=23
2cc#	vi-
4cc#}	-vre,}
{4cc#	{c'est
=24	=24
[2cc#	Dieu
8cc#]	|
8cc#	qu'il
8b	faut
8b	ai-
=25	=25
1a}	-mer.}
=26	=26
1r	.
=27	=27
2r	.
4r	.
{4cc#	{En
=28	=28
2f#	vain,
8r	.
4a	pour
16b	sa-
16cc#	-tis-
=29	=29
4g#	-faire
8g#	a\
8g#	nos
4.b	la^-
16a	-ches
16g#	en-
=30	=30
2a	-vi-
8a}	-es,}
8r	.
{8.f#	{Nous
16a	pas-
=31	=31
2g#	-sons
4.a	pre\s
8b	des
=32	=32
4cc#	rois
8.cc#	tous
16cc#	le
4cc#	temps
8.cc#	de
16dd#	nos
=33	=33
2b#	vi-
8b#}	-es,}
8r	.
{8.b#	{A
16dd#	souf-
=34	=34
2cc#	-frir
4.cc#	des
8cc#	me/-
=35	=35
2d#	-pris
4.cc#	et
8cc#	ploy-
=36	=36
2cc#	-er
4.cc#	les
8cc#	ge-
=37	=37
2.b#}	noux:}
4r	.
=38	=38
2r	.
{4a	{Ce
4a	qu'ils
=39	=39
2b	peu-
4b	-vent
4cc#	n'est
=40	=40
2dd}	rien;}
4r	.
{4cc#	{ils
=41	=41
(4cc#	sont,
4b)	|
4dd	com-
8b	-mes
8cc#	nous
=42	=42
2a	som-
2a}	-mes,}
=43	=43
4r	.
{8a	{Ve/r-
8a	-i-
8.ccn	-ta-
16ccn	-ble-
4b	-ment
=44	=44
2e	hom-
4e}	-me,}
8r	.
{8e	{Et
!!last note changed to eighth - unintentional 9/8 in original
=45	=45
2e	meu-
4e	-rent
8.e	com-
16e	-me
=46	=46
1e}	nous.}
*-	*-
